_images/SocialNetwork/blog.svg

<svg width="31" height="31" viewBox="0 0 31 31" fill="none" xmlns="http://www.w3.org/2000/svg">
<g clip-path="url(#clip0_11928_155532)">
<rect x="0.0142822" y="0.831299" width="30" height="30" rx="15" fill="#1E2126"/>
<path fill-rule="evenodd" clip-rule="evenodd" d="M17.5139 3.80225C17.73 3.80225 17.9051 3.97741 17.9051 4.19347V14.4989C17.9051 14.715 17.73 14.8901 17.5139 14.8901C17.2978 14.8901 17.1227 14.715 17.1227 14.4989V4.19347C17.1227 3.97741 17.2978 3.80225 17.5139 3.80225Z" fill="white"/>
<path fill-rule="evenodd" clip-rule="evenodd" d="M11.9038 4.91856C12.1035 4.83587 12.3323 4.93066 12.415 5.13028L16.3589 14.6513C16.4416 14.8509 16.3468 15.0797 16.1472 15.1624C15.9476 15.2451 15.7187 15.1503 15.636 14.9507L11.6921 5.42972C11.6094 5.2301 11.7042 5.00125 11.9038 4.91856Z" fill="white"/>
<path fill-rule="evenodd" clip-rule="evenodd" d="M7.14791 8.09652C7.3007 7.94374 7.54841 7.94374 7.70119 8.09652L14.9884 15.3837C15.1412 15.5365 15.1412 15.7842 14.9884 15.937C14.8356 16.0898 14.5879 16.0898 14.4351 15.937L7.14791 8.6498C6.99513 8.49702 6.99513 8.24931 7.14791 8.09652Z" fill="white"/>
<path fill-rule="evenodd" clip-rule="evenodd" d="M3.97007 12.8512C4.05276 12.6516 4.28162 12.5568 4.48124 12.6395L14.0022 16.5834C14.2018 16.6661 14.2966 16.8949 14.2139 17.0946C14.1313 17.2942 13.9024 17.389 13.7028 17.3063L4.18179 13.3624C3.98217 13.2797 3.88738 13.0508 3.97007 12.8512Z" fill="white"/>
<path fill-rule="evenodd" clip-rule="evenodd" d="M2.85388 18.4623C2.85388 18.2462 3.02904 18.071 3.24511 18.071H13.5505C13.7666 18.071 13.9418 18.2462 13.9418 18.4623C13.9418 18.6783 13.7666 18.8535 13.5505 18.8535H3.24511C3.02904 18.8535 2.85388 18.6783 2.85388 18.4623Z" fill="white"/>
<path fill-rule="evenodd" clip-rule="evenodd" d="M14.2139 19.83C14.2966 20.0296 14.2018 20.2585 14.0022 20.3412L4.48124 24.285C4.28162 24.3677 4.05276 24.2729 3.97007 24.0733C3.88738 23.8737 3.98217 23.6448 4.18179 23.5622L13.7028 19.6183C13.9024 19.5356 14.1313 19.6304 14.2139 19.83Z" fill="white"/>
<path fill-rule="evenodd" clip-rule="evenodd" d="M14.9884 20.9884C15.1412 21.1412 15.1412 21.3889 14.9884 21.5417L7.70119 28.8289C7.54841 28.9817 7.3007 28.9817 7.14791 28.8289C6.99513 28.6761 6.99513 28.4284 7.14791 28.2756L14.4351 20.9884C14.5879 20.8356 14.8356 20.8356 14.9884 20.9884Z" fill="white"/>
<path fill-rule="evenodd" clip-rule="evenodd" d="M16.1472 21.7631C16.3468 21.8458 16.4416 22.0746 16.3589 22.2743L12.415 31.7953C12.3323 31.9949 12.1035 32.0897 11.9038 32.007C11.7042 31.9243 11.6094 31.6954 11.6921 31.4958L15.636 21.9748C15.7187 21.7752 15.9476 21.6804 16.1472 21.7631Z" fill="white"/>
<path fill-rule="evenodd" clip-rule="evenodd" d="M17.5139 22.0359C17.73 22.0359 17.9051 22.211 17.9051 22.4271V32.7325C17.9051 32.9486 17.73 33.1238 17.5139 33.1238C17.2978 33.1238 17.1227 32.9486 17.1227 32.7325V22.4271C17.1227 22.211 17.2978 22.0359 17.5139 22.0359Z" fill="white"/>
<path fill-rule="evenodd" clip-rule="evenodd" d="M18.8815 21.7631C19.0811 21.6804 19.31 21.7752 19.3927 21.9748L23.3366 31.4958C23.4192 31.6954 23.3245 31.9243 23.1248 32.007C22.9252 32.0897 22.6964 31.9949 22.6137 31.7953L18.6698 22.2743C18.5871 22.0746 18.6819 21.8458 18.8815 21.7631Z" fill="white"/>
<path fill-rule="evenodd" clip-rule="evenodd" d="M20.0401 20.9884C20.1929 20.8356 20.4406 20.8356 20.5934 20.9884L27.8806 28.2756C28.0334 28.4284 28.0334 28.6761 27.8806 28.8289C27.7278 28.9817 27.4801 28.9817 27.3273 28.8289L20.0401 21.5417C19.8873 21.3889 19.8873 21.1412 20.0401 20.9884Z" fill="white"/>
<path fill-rule="evenodd" clip-rule="evenodd" d="M20.8146 19.83C20.8972 19.6304 21.1261 19.5356 21.3257 19.6183L30.8467 23.5622C31.0463 23.6448 31.1411 23.8737 31.0584 24.0733C30.9757 24.2729 30.7469 24.3677 30.5473 24.285L21.0263 20.3412C20.8267 20.2585 20.7319 20.0296 20.8146 19.83Z" fill="white"/>
<path fill-rule="evenodd" clip-rule="evenodd" d="M21.0869 18.4623C21.0869 18.2462 21.2621 18.071 21.4781 18.071H31.7836C31.9996 18.071 32.1748 18.2462 32.1748 18.4623C32.1748 18.6783 31.9996 18.8535 31.7836 18.8535H21.4781C21.2621 18.8535 21.0869 18.6783 21.0869 18.4623Z" fill="white"/>
<path fill-rule="evenodd" clip-rule="evenodd" d="M31.0584 12.8512C31.1411 13.0508 31.0463 13.2797 30.8467 13.3624L21.3257 17.3063C21.1261 17.389 20.8972 17.2942 20.8146 17.0946C20.7319 16.8949 20.8267 16.6661 21.0263 16.5834L30.5473 12.6395C30.7469 12.5568 30.9757 12.6516 31.0584 12.8512Z" fill="white"/>
<path fill-rule="evenodd" clip-rule="evenodd" d="M27.8806 8.09652C28.0334 8.24931 28.0334 8.49702 27.8806 8.6498L20.5934 15.937C20.4406 16.0898 20.1929 16.0898 20.0401 15.937C19.8873 15.7842 19.8873 15.5365 20.0401 15.3837L27.3273 8.09652C27.4801 7.94374 27.7278 7.94374 27.8806 8.09652Z" fill="white"/>
<path fill-rule="evenodd" clip-rule="evenodd" d="M23.1248 4.91856C23.3245 5.00125 23.4192 5.2301 23.3366 5.42972L19.3927 14.9507C19.31 15.1503 19.0811 15.2451 18.8815 15.1624C18.6819 15.0797 18.5871 14.8509 18.6698 14.6513L22.6137 5.13028C22.6964 4.93066 22.9252 4.83587 23.1248 4.91856Z" fill="white"/>
<path fill-rule="evenodd" clip-rule="evenodd" d="M17.5139 3.15063C18.09 3.15063 18.5571 3.61773 18.5571 4.19391V9.25014C18.5571 9.82633 18.09 10.2934 17.5139 10.2934C16.9377 10.2934 16.4706 9.82633 16.4706 9.25014V4.19391C16.4706 3.61773 16.9377 3.15063 17.5139 3.15063Z" fill="white"/>
<path fill-rule="evenodd" clip-rule="evenodd" d="M11.6543 4.31675C12.1866 4.09625 12.7969 4.34904 13.0174 4.88137L15.2841 10.3536C15.5046 10.8859 15.2518 11.4962 14.7194 11.7167C14.1871 11.9372 13.5768 11.6844 13.3563 11.1521L11.0897 5.67985C10.8692 5.14752 11.122 4.53724 11.6543 4.31675Z" fill="white"/>
<path fill-rule="evenodd" clip-rule="evenodd" d="M6.68679 7.63583C7.09422 7.22841 7.75478 7.22841 8.16221 7.63583L12.8199 12.2935C13.2273 12.701 13.2273 13.3615 12.8199 13.769C12.4125 14.1764 11.7519 14.1764 11.3445 13.769L6.68679 9.11124C6.27937 8.70382 6.27937 8.04325 6.68679 7.63583Z" fill="white"/>
<path fill-rule="evenodd" clip-rule="evenodd" d="M3.36755 12.6023C3.58806 12.07 4.19836 11.8172 4.73067 12.0377L11.1929 14.7147C11.7252 14.9353 11.978 15.5456 11.7575 16.0779C11.5369 16.6102 10.9266 16.863 10.3943 16.6424L3.93211 13.9654C3.39979 13.7449 3.14703 13.1346 3.36755 12.6023Z" fill="white"/>
<path fill-rule="evenodd" clip-rule="evenodd" d="M2.20178 18.4626C2.20178 17.8865 2.66887 17.4194 3.24506 17.4194H10.3799C10.956 17.4194 11.4231 17.8865 11.4231 18.4626C11.4231 19.0388 10.956 19.5059 10.3799 19.5059H3.24506C2.66887 19.5059 2.20178 19.0388 2.20178 18.4626Z" fill="white"/>
<path fill-rule="evenodd" clip-rule="evenodd" d="M11.7575 20.8468C11.978 21.3792 11.7252 21.9895 11.1929 22.21L4.73067 24.887C4.19836 25.1075 3.58806 24.8548 3.36755 24.3224C3.14703 23.7901 3.39979 23.1798 3.93211 22.9593L10.3943 20.2823C10.9266 20.0618 11.5369 20.3145 11.7575 20.8468Z" fill="white"/>
<path fill-rule="evenodd" clip-rule="evenodd" d="M12.8199 23.1559C13.2273 23.5632 13.2274 24.2238 12.82 24.6313L8.16226 29.2897C7.75487 29.6971 7.0943 29.6972 6.68685 29.2898C6.27939 28.8824 6.27934 28.2218 6.68674 27.8144L11.3445 23.156C11.7518 22.7485 12.4124 22.7485 12.8199 23.1559Z" fill="white"/>
<path fill-rule="evenodd" clip-rule="evenodd" d="M14.7194 25.2091C15.2518 25.4296 15.5046 26.0399 15.2841 26.5722L13.0174 32.0444C12.7969 32.5767 12.1866 32.8295 11.6543 32.609C11.122 32.3885 10.8692 31.7783 11.0897 31.2459L13.3563 25.7737C13.5768 25.2414 14.1871 24.9886 14.7194 25.2091Z" fill="white"/>
<path fill-rule="evenodd" clip-rule="evenodd" d="M17.5139 26.6332C18.09 26.6332 18.5571 27.1003 18.5571 27.6765V32.7327C18.5571 33.3089 18.09 33.776 17.5139 33.776C16.9377 33.776 16.4706 33.3089 16.4706 32.7327V27.6765C16.4706 27.1003 16.9377 26.6332 17.5139 26.6332Z" fill="white"/>
<path fill-rule="evenodd" clip-rule="evenodd" d="M21.0054 26.8912C21.5377 26.6706 22.148 26.9234 22.3686 27.4557L23.9389 31.2458C24.1594 31.7781 23.9067 32.3884 23.3744 32.6089C22.8421 32.8295 22.2318 32.5767 22.0112 32.0444L20.4409 28.2543C20.2204 27.722 20.4731 27.1117 21.0054 26.8912Z" fill="white"/>
<path fill-rule="evenodd" clip-rule="evenodd" d="M24.5863 25.535C24.9938 25.1276 25.6543 25.1276 26.0617 25.535L28.3417 27.8149C28.7491 28.2223 28.7491 28.8829 28.3417 29.2903C27.9342 29.6978 27.2737 29.6978 26.8662 29.2903L24.5863 27.0104C24.1789 26.603 24.1789 25.9424 24.5863 25.535Z" fill="white"/>
<path fill-rule="evenodd" clip-rule="evenodd" d="M27.3296 22.5278C27.55 21.9955 28.1603 21.7427 28.6927 21.9632L31.0963 22.9587C31.6287 23.1792 31.8814 23.7895 31.661 24.3218C31.4405 24.8542 30.8302 25.107 30.2979 24.8865L27.8942 23.8909C27.3619 23.6704 27.1091 23.0601 27.3296 22.5278Z" fill="white"/>
<path fill-rule="evenodd" clip-rule="evenodd" d="M28.3618 18.4626C28.3618 17.8865 28.8289 17.4194 29.4051 17.4194H31.7836C32.3598 17.4194 32.8269 17.8865 32.8269 18.4626C32.8269 19.0388 32.3598 19.5059 31.7836 19.5059H29.4051C28.8289 19.5059 28.3618 19.0388 28.3618 18.4626Z" fill="white"/>
<path fill-rule="evenodd" clip-rule="evenodd" d="M31.661 12.6023C31.8814 13.1347 31.6287 13.7449 31.0963 13.9654L28.6927 14.961C28.1603 15.1815 27.55 14.9287 27.3296 14.3964C27.1091 13.864 27.3619 13.2538 27.8942 13.0333L30.2979 12.0377C30.8302 11.8172 31.4405 12.07 31.661 12.6023Z" fill="white"/>
<path fill-rule="evenodd" clip-rule="evenodd" d="M28.3417 7.63583C28.7491 8.04325 28.7491 8.70382 28.3417 9.11124L26.0617 11.3912C25.6543 11.7986 24.9938 11.7986 24.5863 11.3912C24.1789 10.9837 24.1789 10.3232 24.5863 9.91575L26.8662 7.63583C27.2737 7.22841 27.9342 7.2284 28.3417 7.63583Z" fill="white"/>
<path fill-rule="evenodd" clip-rule="evenodd" d="M23.3744 4.31678C23.9067 4.53733 24.1594 5.14763 23.9389 5.67994L22.3686 9.47001C22.148 10.0023 21.5377 10.2551 21.0054 10.0345C20.4731 9.81397 20.2204 9.20366 20.4409 8.67136L22.0112 4.88128C22.2318 4.34898 22.8421 4.09624 23.3744 4.31678Z" fill="white"/>
</g>
<defs>
<clipPath id="clip0_11928_155532">
<rect x="0.0142822" y="0.831299" width="30" height="30" rx="15" fill="white"/>
</clipPath>
</defs>
</svg>

<svg xmlns="http://www.w3.org/2000/svg" width="31" height="31" fill="none"><g clip-path="url(#a)"><rect width="30" height="30" x=".014" y=".831" fill="#1E2126" rx="15"/><path fill="#fff" fill-rule="evenodd" d="M17.514 3.802c.216 0 .391.175.391.391V14.5a.391.391 0 1 1-.782 0V4.193c0-.216.175-.39.39-.39ZM11.904 4.919c.2-.083.428.012.511.211l3.944 9.521a.391.391 0 1 1-.723.3L11.692 5.43a.391.391 0 0 1 .212-.511ZM7.148 8.097a.391.391 0 0 1 .553 0l7.287 7.287a.391.391 0 1 1-.553.553L7.148 8.65a.391.391 0 0 1 0-.553ZM3.97 12.851a.391.391 0 0 1 .511-.212l9.521 3.944a.391.391 0 0 1-.3.723l-9.52-3.944a.391.391 0 0 1-.212-.51ZM2.854 18.462c0-.216.175-.391.391-.391H13.55a.391.391 0 0 1 0 .782H3.245a.391.391 0 0 1-.391-.39ZM14.214 19.83a.391.391 0 0 1-.212.511l-9.52 3.944a.391.391 0 0 1-.3-.723l9.52-3.944c.2-.082.43.012.512.212ZM14.988 20.988c.153.153.153.4 0 .554l-7.287 7.287a.391.391 0 1 1-.553-.553l7.287-7.288a.391.391 0 0 1 .553 0ZM16.147 21.763c.2.083.295.312.212.511l-3.944 9.521a.391.391 0 1 1-.723-.3l3.944-9.52a.391.391 0 0 1 .511-.212ZM17.514 22.036c.216 0 .391.175.391.391v10.306a.391.391 0 1 1-.782 0V22.427c0-.216.175-.391.39-.391ZM18.881 21.763c.2-.083.429.012.512.212l3.944 9.52a.391.391 0 0 1-.723.3l-3.944-9.52a.391.391 0 0 1 .211-.512ZM20.04 20.988a.391.391 0 0 1 .553 0l7.288 7.288a.391.391 0 1 1-.554.553l-7.287-7.287a.391.391 0 0 1 0-.554ZM20.815 19.83a.391.391 0 0 1 .51-.212l9.522 3.944a.391.391 0 1 1-.3.723l-9.52-3.944a.391.391 0 0 1-.212-.511ZM21.087 18.462c0-.216.175-.391.391-.391h10.306a.391.391 0 0 1 0 .782H21.478a.391.391 0 0 1-.391-.39ZM31.058 12.851a.391.391 0 0 1-.211.511l-9.521 3.944a.391.391 0 1 1-.3-.723l9.521-3.943c.2-.083.429.012.511.211ZM27.88 8.097c.153.152.153.4 0 .553l-7.287 7.287a.391.391 0 1 1-.553-.553l7.287-7.287a.391.391 0 0 1 .554 0ZM23.125 4.919c.2.082.294.311.212.51l-3.944 9.522a.391.391 0 0 1-.723-.3l3.944-9.52a.391.391 0 0 1 .51-.212Z" clip-rule="evenodd"/><path fill="#fff" fill-rule="evenodd" d="M17.514 3.15c.576 0 1.043.468 1.043 1.044V9.25a1.043 1.043 0 1 1-2.086 0V4.194c0-.576.467-1.043 1.043-1.043ZM11.654 4.317a1.043 1.043 0 0 1 1.363.564l2.267 5.473a1.043 1.043 0 0 1-1.928.798L11.09 5.68a1.043 1.043 0 0 1 .564-1.363ZM6.687 7.636a1.043 1.043 0 0 1 1.475 0l4.658 4.657a1.043 1.043 0 0 1-1.476 1.476L6.688 9.111a1.043 1.043 0 0 1 0-1.475ZM3.368 12.602c.22-.532.83-.785 1.363-.564l6.462 2.677a1.043 1.043 0 0 1-.799 1.927l-6.462-2.677a1.043 1.043 0 0 1-.564-1.363ZM2.202 18.463c0-.576.467-1.044 1.043-1.044h7.135a1.043 1.043 0 0 1 0 2.087H3.245a1.043 1.043 0 0 1-1.043-1.043ZM11.758 20.847a1.043 1.043 0 0 1-.565 1.363L4.73 24.887a1.043 1.043 0 1 1-.799-1.928l6.462-2.677a1.043 1.043 0 0 1 1.364.565ZM12.82 23.156a1.043 1.043 0 0 1 0 1.475L8.162 29.29a1.043 1.043 0 0 1-1.475-1.476l4.657-4.658a1.043 1.043 0 0 1 1.476 0ZM14.72 25.21c.532.22.785.83.564 1.362l-2.267 5.472a1.043 1.043 0 0 1-1.927-.798l2.266-5.472c.22-.533.831-.785 1.363-.565ZM17.514 26.633c.576 0 1.043.467 1.043 1.044v5.056a1.043 1.043 0 1 1-2.086 0v-5.056c0-.577.467-1.044 1.043-1.044ZM21.005 26.891a1.043 1.043 0 0 1 1.364.565l1.57 3.79a1.043 1.043 0 1 1-1.928.798l-1.57-3.79a1.043 1.043 0 0 1 .564-1.363ZM24.586 25.535a1.043 1.043 0 0 1 1.476 0l2.28 2.28a1.043 1.043 0 0 1-1.476 1.475l-2.28-2.28a1.043 1.043 0 0 1 0-1.475ZM27.33 22.528c.22-.532.83-.785 1.363-.565l2.403.996a1.043 1.043 0 0 1-.798 1.928l-2.404-.996a1.043 1.043 0 0 1-.564-1.363ZM28.362 18.463c0-.576.467-1.044 1.043-1.044h2.379a1.043 1.043 0 1 1 0 2.087h-2.379a1.043 1.043 0 0 1-1.043-1.043ZM31.661 12.602a1.043 1.043 0 0 1-.565 1.363l-2.403.996a1.043 1.043 0 1 1-.799-1.928l2.404-.995a1.043 1.043 0 0 1 1.363.564ZM28.342 7.636a1.043 1.043 0 0 1 0 1.475l-2.28 2.28a1.043 1.043 0 0 1-1.476-1.475l2.28-2.28a1.043 1.043 0 0 1 1.476 0ZM23.374 4.317c.533.22.785.83.565 1.363l-1.57 3.79a1.043 1.043 0 0 1-1.928-.799l1.57-3.79c.22-.532.831-.785 1.363-.564Z" clip-rule="evenodd"/></g><defs><clipPath id="a"><rect width="30" height="30" x=".014" y=".831" fill="#fff" rx="15"/></clipPath></defs></svg>
